X: 1
T:Brian Boru's
M:6/8
L:1/8
Q:80
C:Trad.
S:March 6/8
K:HP
|: {g}fe/2|
{Gdc}d3/2c/2{d}B{G}B3/2{g}fe/2|
{Gdc}d3/2c/2{d}B{G}B3/2{g}ed/2|  !
{g}c3/2{d}A/2{e}A{GAG}A3/2{g}ed/2|
{g}c3/2{d}A/2{e}A{GAG}A3/2{g}fe/2|
{Gdc}d3/2c/2{d}B{G}B3/2{g}fe/2|  !
{Gdc}d3/2c/2{d}B{G}B2{d}c|
{Gdc}d2e{gfg}f2e|
{Gdc}d3/2c/2{d}B{G}B3/2:| |:  !
f|
{g}B3/2d/2e{g}f2e|
{gfg}f2e{g}f3/2e/2c|
{g}A3/2c/2d{gef}e2c|  !
{gef}e2c{gef}e3/2c/2{e}A|
{g}B3/2d/2e{g}f2e|
{gfg}f2e{g}f3|  !
{Gdc}d3/2c/2{d}B{g}f2e|
{Gdc}d3/2c/2{d}B{G}B2:| |:
{d}c|  !
{Gdc}d3/2c/2{d}B{gfg}f2B|
{Gdc}d3/2c/2{d}B{gfg}f2A|
{gcd}c3/2B/2A{gef}e2A|  !
{gcd}c3/2B/2A{gef}e2A|
{Gdc}d3/2c/2{d}B{gfg}f2B|
{Gdc}d3/2c/2{d}B{gfg}f2A|  !
{Gdc}d2e{gfg}f2e|
{Gdc}d3/2c/2{d}B{G}B2:|
